X:348
T:B348-  Old Simon the King
S:(2nd/2) Ground is B348B
Q:1/4=120
L:1/4
M:9/4
K:G mixolydian
G|A3/2 B/cc3/2 d/cc2G|A3/2 B/ccdef2c|AFFF2GABc|\
d2cB2AG2|:a|g2fe2dc2a|g3/2 a/ f/g/ e3/2 f/ d/e/ cde|\
fFFA/B/ c/B/ A/G/A2D|gGGB/c/ d/c/ B/A/BG:|]

